X: 174
T: No_34_Cow_Creek_Hunting_Dance_Song_(a).krn
N: Derived from No_34_Cow_Creek_Hunting_Dance_Song_(a).krn
%%abc-version 2.0
%%abcx-abcm2ps-target-version 5.9.1 (29 Sep 2008)
%%abc-creator hum2abc beta
%%abcx-conversion-date 2019/03/15 08:38:45
%%humdrum-veritas 2037982820
%%humdrum-veritas-data 618323503
%%linebreak <none>
%%barnumbers 0
L: 1/16
M: 2/4
K: F clef=bass
[K:clef=bass][M:2/4]z4C3C ]|:  
D2C2 C3C | 
C6A,2 | 
C6A,A, ||  
[M:7/8]A,4F,4F,6 ||  
[M:3/8]F,6 | 
G,4F,3/F,/ ||  
[M:3/4]E,4C,4C,3C, ||  
[M:3/8]C,6 | 
E,4C,3/C,/ | 
E,2C,2 z C, ||  
[M:2/4]C,4C,4 | 
F,2F,2 C,3F, | 
F,4F,3F, | 
B,3B,A,4 ||  
[M:3/8]F,A,A,2F,3/F,/ ||  
[M:2/4]F,4F,4 ||  
[M:3/8]E,2C,2C, z | 
G,4F,3/F,/ ||  
[M:2/4]E,2C,2 C,3C, | 
C,4C,2E,3/E,/ | 
E,2C,2 C,C,C,2 | 
(C6G,) z ||  
[M:3/4]C4z4C2C2 :|]  



